dist/img/icons/instagram.svg

<svg width="30" height="30" viewBox="0 0 30 30" fill="none" xmlns="http://www.w3.org/2000/svg">
<path d="M15.0088 2.7017C19.019 2.7017 19.4938 2.71928 21.0709 2.78961C22.5366 2.85407 23.3281 3.10021 23.8558 3.30533C24.5534 3.57492 25.0576 3.90311 25.5794 4.42469C26.1071 4.95214 26.4295 5.45028 26.7051 6.14769C26.9103 6.67513 27.1565 7.47216 27.221 8.93143C27.2914 10.5138 27.309 10.9885 27.309 14.9912C27.309 18.9939 27.2914 19.4745 27.221 21.051C27.1565 22.5161 26.9103 23.3073 26.7051 23.8347C26.4354 24.5321 26.1071 25.0361 25.5853 25.5577C25.0576 26.0852 24.5593 26.4075 23.8616 26.6829C23.334 26.8881 22.5366 27.1342 21.0768 27.1987C19.4938 27.269 19.019 27.2866 15.0147 27.2866C11.0104 27.2866 10.5296 27.269 8.95251 27.1987C7.48681 27.1342 6.69533 26.8881 6.16768 26.6829C5.47 26.4134 4.9658 26.0852 4.44401 25.5636C3.91636 25.0361 3.5939 24.538 3.31835 23.8406C3.11315 23.3131 2.86691 22.5161 2.80242 21.0568C2.73207 19.4745 2.71448 18.9998 2.71448 14.9971C2.71448 10.9943 2.73207 10.5138 2.80242 8.93729C2.86691 7.47216 3.11315 6.68099 3.31835 6.15355C3.58804 5.45614 3.91636 4.95214 4.43815 4.43055C4.9658 3.90311 5.46414 3.58078 6.16181 3.30533C6.68947 3.10021 7.48681 2.85407 8.94665 2.78961C10.5237 2.71928 10.9986 2.7017 15.0088 2.7017ZM15.0088 0C10.9341 0 10.4241 0.0175816 8.82353 0.0879078C7.22884 0.158234 6.1325 0.416097 5.18272 0.78531C4.19191 1.1721 3.35353 1.68197 2.52101 2.52002C1.68263 3.35222 1.17256 4.19027 0.785617 5.17484C0.416259 6.1301 0.158296 7.22016 0.0879422 8.81422C0.0175884 10.42 0 10.9299 0 15.0029C0 19.076 0.0175884 19.5859 0.0879422 21.1858C0.158296 22.7798 0.416259 23.8758 0.785617 24.8252C1.17256 25.8156 1.68263 26.6536 2.52101 27.4858C3.35353 28.318 4.19191 28.8338 5.17686 29.2147C6.1325 29.5839 7.22298 29.8418 8.81767 29.9121C10.4182 29.9824 10.9283 30 15.0029 30C19.0776 30 19.5876 29.9824 21.1882 29.9121C22.7829 29.8418 23.8792 29.5839 24.829 29.2147C25.814 28.8338 26.6523 28.318 27.4849 27.4858C28.3174 26.6536 28.8333 25.8156 29.2144 24.831C29.5837 23.8758 29.8417 22.7857 29.9121 21.1916C29.9824 19.5917 30 19.0819 30 15.0088C30 10.9357 29.9824 10.4259 29.9121 8.82594C29.8417 7.23188 29.5837 6.13596 29.2144 5.18656C28.845 4.19027 28.335 3.35222 27.4966 2.52002C26.6641 1.68783 25.8257 1.1721 24.8407 0.79117C23.8851 0.421957 22.7946 0.164095 21.1999 0.0937683C19.5935 0.0175816 19.0834 0 15.0088 0V0Z" fill="#134731"/>
<path d="M15.0088 7.29639C10.7524 7.29639 7.29919 10.7482 7.29919 15.003C7.29919 19.2577 10.7524 22.7096 15.0088 22.7096C19.2652 22.7096 22.7184 19.2577 22.7184 15.003C22.7184 10.7482 19.2652 7.29639 15.0088 7.29639ZM15.0088 20.002C12.2474 20.002 10.0078 17.7633 10.0078 15.003C10.0078 12.2427 12.2474 10.0039 15.0088 10.0039C17.7702 10.0039 20.0098 12.2427 20.0098 15.003C20.0098 17.7633 17.7702 20.002 15.0088 20.002Z" fill="#134731"/>
<path d="M24.8232 6.99156C24.8232 7.98527 24.0174 8.79074 23.0233 8.79074C22.0292 8.79074 21.2234 7.98527 21.2234 6.99156C21.2234 5.99785 22.0292 5.19238 23.0233 5.19238C24.0174 5.19238 24.8232 5.99785 24.8232 6.99156Z" fill="#134731"/>
</svg>

<svg width="30" height="30" fill="none" xmlns="http://www.w3.org/2000/svg"><path d="M15.009 2.702c4.01 0 4.485.017 6.062.088 1.466.064 2.257.31 2.785.515a4.64 4.64 0 011.723 1.12c.528.527.85 1.025 1.126 1.723.205.527.452 1.324.516 2.783.07 1.583.088 2.058.088 6.06 0 4.003-.018 4.483-.088 6.06-.064 1.465-.31 2.256-.516 2.784a4.64 4.64 0 01-1.12 1.723 4.703 4.703 0 01-1.723 1.125c-.528.205-1.325.451-2.785.516-1.583.07-2.058.088-6.062.088-4.005 0-4.485-.018-6.062-.088-1.466-.065-2.258-.31-2.785-.516a4.64 4.64 0 01-1.724-1.12 4.702 4.702 0 01-1.126-1.722c-.205-.528-.451-1.325-.516-2.784-.07-1.582-.088-2.057-.088-6.06s.018-4.483.088-6.06c.065-1.465.311-2.256.516-2.783a4.64 4.64 0 011.12-1.723 4.704 4.704 0 011.724-1.126c.527-.205 1.325-.45 2.785-.515 1.577-.07 2.052-.088 6.062-.088zm0-2.702c-4.075 0-4.585.018-6.185.088-1.595.07-2.691.328-3.641.697-.991.387-1.83.897-2.662 1.735A7.35 7.35 0 00.786 5.175C.416 6.13.158 7.22.088 8.815.018 10.42 0 10.93 0 15.002c0 4.073.018 4.583.088 6.183.07 1.594.328 2.69.698 3.64.387.99.897 1.828 1.735 2.66a7.336 7.336 0 002.656 1.729c.956.369 2.046.627 3.64.697 1.601.07 2.111.088 6.186.088 4.075 0 4.585-.018 6.185-.088 1.595-.07 2.691-.328 3.641-.697a7.337 7.337 0 002.656-1.73 7.333 7.333 0 001.73-2.654c.369-.955.627-2.045.697-3.64.07-1.6.088-2.11.088-6.182 0-4.073-.018-4.583-.088-6.183-.07-1.594-.328-2.69-.698-3.64a7.027 7.027 0 00-1.717-2.666A7.336 7.336 0 0024.84.791C23.885.422 22.795.164 21.2.094 19.593.018 19.083 0 15.009 0z" fill="#134731"/><path d="M15.009 7.296a7.71 7.71 0 00-7.71 7.707 7.71 7.71 0 0015.42 0 7.71 7.71 0 00-7.71-7.707zm0 12.706a5 5 0 01-5.001-4.999 5 5 0 0110.002 0 5 5 0 01-5.001 4.999zm9.814-13.01a1.8 1.8 0 11-3.599-.001 1.8 1.8 0 013.6 0z" fill="#134731"/></svg>
